assets/icons/sidebar/hide.svg

<?xml version="1.0" encoding="UTF-8" standalone="no"?>
<svg viewBox="0 0 24 24" width="24" height="24" version="1.1" id="svg8" sodipodi:docname="hide.svg" inkscape:version="1.1 (ce6663b3b7, 2021-05-25)"
   xmlns:inkscape="http://www.inkscape.org/namespaces/inkscape"
   xmlns:sodipodi="http://sodipodi.sourceforge.net/DTD/sodipodi-0.dtd"
   xmlns="http://www.w3.org/2000/svg"
   xmlns:svg="http://www.w3.org/2000/svg"
   xmlns:rdf="http://www.w3.org/1999/02/22-rdf-syntax-ns#"
   xmlns:cc="http://creativecommons.org/ns#"
   xmlns:dc="http://purl.org/dc/elements/1.1/">
   <path id="path1472" style="color:#000000;fill:#808080;stroke-linecap:square;-inkscape-stroke:none;fill-opacity:1" d="M 6 3 L 6 4 L 6.5 4 L 13.5 4 C 14.499999 4 15.20623 4.036708 15.527344 4.1972656 C 15.687901 4.2775446 15.772339 4.3598326 15.855469 4.546875 C 15.938599 4.7339174 16 5.0416671 16 5.5 L 16 18.5 C 16 18.958333 15.9386 19.266083 15.855469 19.453125 C 15.772339 19.640167 15.687901 19.722456 15.527344 19.802734 C 15.20623 19.963291 14.499999 20 13.5 20 L 6.5 20 L 6 20 L 6 21 L 6.5 21 L 13.5 21 C 14.499999 21 15.293771 21.03671 15.972656 20.697266 C 16.312099 20.527544 16.602661 20.234832 16.769531 19.859375 C 16.936401 19.483918 17 19.041666 17 18.5 L 17 5.5 C 17 4.9583339 16.9364 4.516082 16.769531 4.140625 C 16.602661 3.765168 16.312099 3.4724556 15.972656 3.3027344 C 15.293771 2.963292 14.499999 3 13.5 3 L 6.5 3 L 6 3 z M 11.5 7.7929688 L 11.146484 8.1464844 L 7.2929688 12 L 11.146484 15.853516 L 11.5 16.207031 L 12.207031 15.5 L 11.853516 15.146484 L 8.7070312 12 L 11.853516 8.8535156 L 12.207031 8.5 L 11.5 7.7929688 z " />
   <metadata id="metadata14">
      <rdf:RDF>
         <cc:Work rdf:about="">
            <dc:format>image/svg+xml</dc:format>
            <dc:type rdf:resource="http://purl.org/dc/dcmitype/StillImage" />
         </cc:Work>
      </rdf:RDF>
   </metadata>
   <defs id="defs12" />
   <sodipodi:namedview pagecolor="#ffffff" bordercolor="#666666" borderopacity="1" objecttolerance="10" gridtolerance="10" guidetolerance="10" inkscape:pageopacity="0" inkscape:pageshadow="2" inkscape:window-width="1920" inkscape:window-height="1016" id="namedview10" showgrid="true" inkscape:zoom="27.5" inkscape:cx="19.909091" inkscape:cy="6.1636364" inkscape:window-x="0" inkscape:window-y="27" inkscape:window-maximized="1" inkscape:current-layer="svg8" inkscape:pagecheckerboard="0" inkscape:snap-page="true">
      <inkscape:grid type="xygrid" id="grid1414" />
      <inkscape:grid type="xygrid" id="grid1428" dotted="true" spacingx="0.5" spacingy="0.5" empspacing="10" />
   </sodipodi:namedview>
</svg>

<svg width="24" height="24" xmlns="http://www.w3.org/2000/svg"><path style="color:#000;fill:gray;stroke-linecap:square;-inkscape-stroke:none;fill-opacity:1" d="M6 3v1h7.5c1 0 1.706.037 2.027.197.16.08.245.163.328.35.084.187.145.495.145.953v13c0 .458-.061.766-.145.953a.615.615 0 0 1-.328.35c-.32.16-1.027.197-2.027.197H6v1h7.5c1 0 1.794.037 2.473-.303.34-.17.63-.462.797-.838.166-.375.23-.817.23-1.359v-13c0-.542-.064-.984-.23-1.36a1.72 1.72 0 0 0-.797-.837C15.293 2.963 14.5 3 13.5 3H6zm5.5 4.793-.354.353L7.293 12l3.853 3.854.354.353.707-.707-.353-.354L8.707 12l3.147-3.146.353-.354-.707-.707z"/></svg>
